src/lib/packages/icons/src/assets/filled/power-off.svg

<svg width="24" height="24" viewBox="0 0 24 24" fill="none" xmlns="http://www.w3.org/2000/svg">
<path d="M12 11C11.447 11 11 10.552 11 10V3C11 2.448 11.447 2 12 2C12.553 2 13 2.448 13 3V10C13 10.552 12.553 11 12 11ZM21 13C21 9.806 19.2759 6.81905 16.5029 5.20605C16.0249 4.92805 15.413 5.08989 15.136 5.56689C14.858 6.04489 15.0201 6.65708 15.4971 6.93408C17.6581 8.19108 19 10.516 19 13C19 16.86 15.859 20 12 20C8.141 20 5 16.86 5 13C5 10.516 6.34193 8.19108 8.50293 6.93408C8.98093 6.65708 9.14301 6.04389 8.86401 5.56689C8.58501 5.08989 7.97307 4.92605 7.49707 5.20605C4.72407 6.82005 3 9.806 3 13C3 17.962 7.037 22 12 22C16.963 22 21 17.962 21 13Z" fill="currentColor"/>
</svg>

<svg xmlns="http://www.w3.org/2000/svg" width="24" height="24" fill="none"><path fill="currentColor" d="M12 11a1 1 0 0 1-1-1V3a1 1 0 1 1 2 0v7a1 1 0 0 1-1 1Zm9 2a9.054 9.054 0 0 0-4.497-7.794 1 1 0 1 0-1.006 1.728A7.048 7.048 0 0 1 19 13c0 3.86-3.141 7-7 7s-7-3.14-7-7a7.048 7.048 0 0 1 3.503-6.066.998.998 0 0 0 .361-1.367.998.998 0 0 0-1.367-.36A9.055 9.055 0 0 0 3 13c0 4.962 4.037 9 9 9s9-4.038 9-9Z"/></svg>
